rospo-icon-theme-classic-common/24x24/places/folder-orange-remote.svg

<svg height="24" width="24" xmlns="http://www.w3.org/2000/svg"><rect height="12" opacity=".2" rx="1" width="20" x="2" y="9.5"/><path d="m2 17c0 .554.446 1 1 1h18c .554 0 1-.446 1-1v-11c0-.554-.446-1-1-1h-10v-1c0-.554-.446-1-1-1h-7c-.554 0-1 .446-1 1" fill="#dd772f"/><rect height="12" opacity=".2" rx="1" width="20" x="2" y="8.5"/><rect fill="#e4e4e4" height="8" rx="1" width="16" x="4" y="7"/><rect fill="#ee923a" height="12" rx="1" width="20" x="2" y="9"/><path d="m3 3c-.554 0-1 .446-1 1v .5c0-.554.446-1 1-1h7c .554 0 1 .446 1 1v-.5c0-.554-.446-1-1-1zm8 2v .5h10c .554 0 1 .446 1 1v-.5c0-.554-.446-1-1-1z" fill="#fff" opacity=".1"/><path d="m11 12c-1.011.202-1.798.99-2 2h-2v1h2c .202 1.009.991 1.797 2 2zm1 0v5c1.01-.202 1.798-.99 2-2h2v-1h-2c-.203-1.009-.991-1.797-2-2z" fill="#533314"/></svg>

<svg xmlns="http://www.w3.org/2000/svg" width="24" height="24" version="1">
 <rect style="opacity:0.2" width="20" height="12" x="2" y="9.5" rx="1" ry="1"/>
 <path style="fill:#dd772f" d="M 2,17 C 2,17.554 2.446,18 3,18 H 21 C 21.554,18 22,17.554 22,17 V 6 C 22,5.446 21.554,5 21,5 H 11 V 4 C 11,3.446 10.554,3 10,3 H 3 C 2.446,3 2,3.446 2,4"/>
 <rect style="opacity:0.2" width="20" height="12" x="2" y="8.5" rx="1" ry="1"/>
 <rect style="fill:#dcdcdc" width="16" height="8" x="4" y="7" rx="1" ry="1"/>
 <rect style="fill:#ee923a" width="20" height="12" x="2" y="9" rx="1" ry="1"/>
 <path style="opacity:0.1;fill:#ffffff" d="M 3,3 C 2.446,3 2,3.446 2,4 V 4.5 C 2,3.946 2.446,3.5 3,3.5 H 10 C 10.554,3.5 11,3.946 11,4.5 V 4 C 11,3.446 10.554,3 10,3 Z M 11,5 V 5.5 H 21 C 21.554,5.5 22,5.946 22,6.5 V 6 C 22,5.446 21.554,5 21,5 Z"/>
 <path style="fill:#533314" d="M 11 12 C 9.989 12.202 9.202 12.99 9 14 L 7 14 L 7 15 L 9 15 C 9.202 16.009 9.991 16.797 11 17 L 11 12 z M 12 12 L 12 17 C 13.01 16.798 13.798 16.01 14 15 L 16 15 L 16 14 L 14 14 C 13.797 12.991 13.009 12.203 12 12 z"/>
</svg>
